X:7581
T:Invercauld
S:Logan's Collection
M:2/4
L:1/16
K:D
% almost major/lydian hexatonic
e2|A2d2   f2e>d|f2a2   f2e>d|A2d2  f2e>d|B2e2 e2d>B|
   A2d2   f2e>d|f2a2   f2e>d|B2e2  c2B<A|d4   d2  :|
fg|a2d2   f2e>d|e>dc>B A2f<g|a2d2  f2e>d|B2e2 e2f>g|
[1 a2d2   f2e>d|e>dc>B A2c2 |B2e2  c2B<A|d4   d2  :|
[2 B<GB>c d2c>B|A2d2   f2e>d|B2e2  c2B<A|d4   d2  |]
